X:1
T:Ask for the Showers of Blessing
T:Ask for the Showers of Blessing
T:Franklin Edson Belden
T:Franklin Edson Belden, 1910
T:Public Domain Courtesy of the Cyber Hymnal™
C:Franklin Edson Belden
Z:Public Domain
Z:Courtesy of the Cyber Hymnal™
%%score ( 1 2 ) ( 3 4 )
L:1/8
Q:1/4=100
M:6/8
K:C
V:1 treble 
V:2 treble 
V:3 bass 
V:4 bass 
V:1
 [EG][EA][EB] [Ec][EB][EA] | [FB]3 F3 | [DF][EG][FA] [FB][FA][FG] | [EA]3- [EA]2 z | %4
w: 1.~“Ask for the show- ers of|bless- ing,|Ye shall not seek Me in|vain”; *|
w: 2.~“Bring all the ‘tithes’ to My|store- house,|Prove Me here- with,” saith the|Lord; *|
w: 3.~“Mine all the gold and the|sil- ver,|Mine all the hous- es and|lands; *|
 [CE][DF][EG] [EA][EG]E | [DG]3 D3 | D[DE][D^F] [Fc][FB][FA] | ([F-d]3 !fermata![FG]2) z || %8
w: Af- ter the voice of con-|fess- ing,|“Sound of a- bun- dance of|rain.” *|
w: Win- dows of heav- en shall|o- pen,|Won- der- ful bless- ings be|poured. *|
w: Blood- bought are ye and your|child- ren,|See the nail- prints in My|hands.” *|
"^Refrain" [Ec]4 [CE][Ec] | [FB]3- [FB]2 z | [Fd]4 [FG][Fd] | [Ec]3- [Ec]2 z | %12
w: Ask for the|rain, *|ask not in|vain; *|
w: ||||
w: ||||
 [Ge][Ge][Ge] [Fd][Fd][Fd] | [Ec][Fc][Gc] [Ad]!fermata![Ac][Ad] | (ec)"^rit."[EG] [DF][CE][B,D] | %15
w: “I will pour wa- ter on|him that is thirst- y, And|floods * up- on the dry|
w: |||
w: |||
 [G,C]6 |] %16
w: ground.”|
w: |
w: |
V:2
 x6 | x3 F3 | x6 | x6 | x5 E | x3 D3 | D x5 | x6 || x6 | x6 | x6 | x6 | x6 | x6 | G2 x4 | x6 |] %16
V:3
 [C,C][C,C][C,C] [C,C][C,C][C,C] | [D,G,]3 [G,B,]3 | [G,B,][G,B,][G,B,] [G,D][G,C][G,B,] | %3
w: ~ ~ ~ ~ ~ ~|~ ~|~ ~ ~ ~ ~ ~|
 [C,C]3- [C,C]2 z | [C,G,][C,G,][C,G,] [C,G,][C,G,][C,G,] | [B,,G,]3 [D,^F,]3 | %6
w: ~ *|~ ~ ~ ~ ~ ~|~ ~|
 [D,^F,][D,G,][D,A,] [D,A,][D,B,][D,C] | ([G,,B,]3 [B,,G,]2) z || [C,G,][D,G,][E,G,] [C,G,] z2 | %9
w: ~ ~ ~ ~ ~ ~|~ *|Ask for the rain,|
 [G,,D][B,,D][D,D] [G,D]2 z | [G,B,][A,C][B,D] [G,B,] z2 | [C,G,][E,G,]G, [C,G,]2 z | %12
w: life- giv- ing rain,|Look for the shower,|wait for the power;|
 CCC [G,B,][G,B,][G,B,] | [A,C][A,D][G,E] [F,F]!fermata![F,F][^F,C] | %14
w: ||
 (CE)[G,C] [G,,A,][G,,G,][G,,F,] | [C,E,]6 |] %16
w: ||
V:4
 x6 | x6 | x6 | x6 | x6 | x6 | x6 | x6 || x6 | x6 | x6 | x2 G, x3 | CCC x3 | x6 | G,2 x4 | x6 |] %16

